X: 152
T: No_76_Fifth_Song_of_the_Dog_Feast.krn
%%abc-version 2.0
%%abcx-abcm2ps-target-version 5.9.1 (29 Sep 2008)
%%abc-creator hum2abc beta
%%abcx-conversion-date 2020/08/10 18:54:56
%%gracespace 0 6 6
%%humdrum-veritas 969247272
%%humdrum-veritas-data 2918156827
%%linebreak <none>
%%barnumbers 0
L: 1/8
M: 5/4
%%staves {1 2}
V: 1 clef=bass
V: 2 clef=bass
K: G
[V:1] [K:clef=bass][M:5/4]DDD2B,<D B,<D!fermata!B,2 | 
[V:2] [K:clef=bass][M:5/4]G,,G,,G,,G,,G,,G,, G,,G,,G,,G,, | 
[V:1] DDD2B,<D B,<D!fermata!B,2 ]|:  
[V:2] z8z2 ]|:  
[V:1] DDD2B,A, G,<G,E,/D,3/ | 
[V:2] z8z2 | 
[V:1] E,D,D,2B,,<D, B,,<D,B,,2 | 
[V:2] z8z2 | 
[V:1] G,G,A,>A, (3G,E,D, D,<E,D,2- ||  
[V:2] z8z2 ||  
[V:1] [M:2/4]D,E, D,3/D,/ | 
[V:2] [M:2/4]z4 | 
[V:1] D,4- | 
[V:2] z4 | 
[V:1] D,4 :|]  
[V:2] z4 :|]  


